X:1
T:Brisbane, 87.87 D
T:Ira David Sankey, 1901
T:Brisbane, 87.87 D
T:Public Domain
C:Ira David Sankey, 1901
Z:Public Domain
%%score ( 1 2 ) ( 3 4 )
L:1/8
M:9/8
K:Bb
V:1 treble 
V:2 treble 
V:3 bass 
V:4 bass 
V:1
 ([DF][B,D])[DF] | [Fd]3- [Fd]2 [Fd] (cB)[EG] | [DF]3 [B,D]3 ([DF][B,D])[FB] | %3
 ([EA]3- AG)[EF] ([CE][DF])[EG] | [DF]6 ([DF][B,D])[DF] | [Fd]3- [Fd]2 [Fd] (cB)[EG] | %6
 [DF]3 [B,D]3 (FB)[FA] | [EG]3 [Ec]3 (FA)[Ec] | [DB]6 [FB]2 [_AB] | [Ge]3- [Ge]2 [Ge] (eB)[_Gc] | %10
 [Fd]3 [Fd]3 [Fd]2 [Fd] | [Fc]3 [Fc]3 (cB)[_EG] | F3 [EF]3 ([DF][B,D])[DF] | %13
 [Fd]3- [Fd]2 [Fd] (cB)[EG] | [DF]3 [B,D]3 (FB)[FA] | [EG]3 [Ec]3 (FA)[Ec] | [DB]6 |] %17
V:2
 x3 | x6 G2 x | x9 | x3 E2 x4 | x9 | x6 G2 x | x6 D2 x | x6 E2 x | x9 | x6 _G2 x | x9 | x6 =E2 x | %12
 F3- x6 | x6 G2 x | x6 D2 x | x6 E2 x | x6 |] %17
V:3
 (B,F,)[B,,B,] | [B,,B,]3- [B,,B,]2 [B,,B,] [E,B,]2 [E,B,] | [B,,B,]3 [B,,F,]3 (B,F,)[B,,D] | %3
 ([F,C]3- CB,)[F,A,] [F,A,]2 [F,,A,] | [B,,B,]6 (B,F,)[B,,B,] | %5
 [B,,B,]3- [B,,B,]2 [B,,B,] [E,B,]2 [E,B,] | [B,,B,]3 [B,,F,]3 (B,F,)[D,B,] | %7
 [E,B,]3 [C,C]3 (A,C)[F,A,] | [B,,F,B,]6 [B,,D]2 [D,B,] | [E,B,]3- [E,B,]2 [E,B,] [E,B,]2 [E,A,] | %10
 [B,,B,]3 [B,,B,]3 [B,,B,]2 [B,,B,] | [C,A,]3 [C,A,]3 [C,G,]2 [C,B,] | [F,A,]6 (B,F,)[B,,B,] | %13
 [B,,B,]3- [B,,B,]2 [B,,B,] [E,B,]2 [E,B,] | [B,,B,]3 [B,,F,]3 (B,F,)[D,B,] | %15
 [E,B,]3 [C,C]3 (A,C)[F,A,] | [B,,F,^A,]6 |] %17
V:4
 B,,2 x | x9 | x6 B,,2 x | x3 F,2 x4 | x6 B,,2 x | x9 | x6 B,,2 x | x6 F,2 x | x9 | x9 | x9 | x9 | %12
 x6 B,,2 x | x9 | x6 B,,2 x | x6 F,2 x | x6 |] %17

